file/pfizer.svg

<svg clip-rule="evenodd" fill-rule="evenodd" stroke-linejoin="round" stroke-miterlimit="1.41421" viewBox="0 0 560 400" xmlns="http://www.w3.org/2000/svg" xmlns:xlink="http://www.w3.org/1999/xlink"><radialGradient id="a" cx="0" cy="0" gradientTransform="matrix(79.9394 0 0 -79.9394 246.926 391.781)" gradientUnits="userSpaceOnUse" r="1"><stop offset="0" stop-color="#00b9f2"/><stop offset=".25" stop-color="#00b9f2"/><stop offset=".53" stop-color="#00a5e8"/><stop offset="1" stop-color="#006cb7"/></radialGradient><path d="m290.526 388.797h-.004c-4.788-.001-9.855-.509-14.996-1.582-21.066-4.394-36.598-16.765-36.602-28.526-.001-.899.089-1.794.274-2.68 1.525-7.309 9.158-12.496 19.76-14.605 2.242 8.646 7.396 28.433 7.396 28.433 1.011 3.914 1.575 5.425 2.576 7.129 1.302 2.202 3.391 4.022 6.319 4.286 1.592.144 3.962-.056 5.288-.988 1.252-.878 1.411-1.798 1.37-2.636-.086-1.731-1.144-2.888-2.836-2.888-1.735 0-2.276 1.273-2.284 2.112-.01 1.142.668 1.318.66 2.164-.005.433-.399 1.109-1.483.94-1.338-.211-2.453-1.272-3.177-3.123-.171-.431-.38-1.007-.64-1.991l-1.331-5.173h8.777c-1.146-4.157-3.09-11.541-3.634-13.564h-4.434l3.042 11.34h-4.345l-6.942-26.71c2.246-.254 4.593-.384 7.017-.379 4.667.01 9.618.515 14.675 1.571 21.114 4.405 37.267 16.892 37.282 28.688.001.872-.085 1.741-.265 2.601-2.018 9.668-15.135 15.581-31.46 15.581zm-38.981-12.359h5.186c7.955 0 8.515-4.06 7.84-6.95-.832-3.578-2.976-6.129-12.108-6.144-.901-3.328-1.679-6.207-1.959-7.239h-4.461c.817 3.018 5.502 20.333 5.502 20.333m40.019-15.541c0 4.91 4.418 9.096 9.142 9.096 2.348 0 4.377-1.092 4.377-2.95 0-1.927-1.534-3.91-3.854-4.662-1.443-.483-2.903-.768-5.351-.768-.059-.516-.036-.715-.036-.993 0-1.31 1.114-2.427 2.664-2.427 2.079 0 4.04 1.907 4.27 2.138l.773-2.066c-.622-.644-1.315-1.204-2.103-1.613-1.241-.647-2.664-.995-4.221-.995-3.375 0-5.661 2.111-5.661 5.24m24.734 9.006c2.463 0 2.833-1.465 2.833-2.601 0-1.333-.942-2.249-2.02-2.249-.818 0-1.178.329-1.323.473-.376.376-.439.761-.482 1.081-.053.377-.177.741-.608.811-.624.099-1.134-.152-1.664-.622-.716-.637-1.326-1.643-1.772-2.611-.307-.668-.535-1.3-.663-1.751l-1.722-6.329h-4.466l3.662 13.564h4.33l-.777-2.719c1.018 1.233 2.922 2.953 4.672 2.953m-34.689-.234h11.099c-1.278-4.218-7.289-7.644-8.948-10.836h6.994l-.732-2.728h-11.359c0 4.286 7.172 9.236 8.536 11.34h-6.191zm-26.152 4.746c-.639-2.362-1.542-5.702-2.41-8.908 3.539.009 5.762.622 6.853 4.124.892 2.867.543 4.784-3.664 4.784zm43.03-7.321c-1.109-.85-1.961-2.189-2.293-3.686 2.018.07 3.159.372 4.206 1.193.942.739 1.365 1.571 1.365 2.272 0 .384-.237.988-1.321.988-.494 0-1.298-.259-1.957-.767" fill="url(#a)" fill-rule="nonzero" transform="matrix(4.1287 0 0 -4.1287 -878.469 1705.23)"/></svg>

<?xml version="1.0" encoding="UTF-8" standalone="no"?>
<!DOCTYPE svg PUBLIC "-//W3C//DTD SVG 1.1//EN" "http://www.w3.org/Graphics/SVG/1.1/DTD/svg11.dtd">
<svg width="100%" height="100%" viewBox="0 0 560 400" version="1.1" xmlns="http://www.w3.org/2000/svg" xmlns:xlink="http://www.w3.org/1999/xlink" xml:space="preserve" xmlns:serif="http://www.serif.com/" style="fill-rule:evenodd;clip-rule:evenodd;stroke-linejoin:round;stroke-miterlimit:1.41421;">
    <g transform="matrix(4.1287,0,0,-4.1287,-878.469,1705.23)">
        <path d="M290.526,388.797L290.522,388.797C285.734,388.796 280.667,388.288 275.526,387.215C254.46,382.821 238.928,370.45 238.924,358.689C238.923,357.79 239.013,356.895 239.198,356.009C240.723,348.7 248.356,343.513 258.958,341.404C261.2,350.05 266.354,369.837 266.354,369.837C267.365,373.751 267.929,375.262 268.93,376.966C270.232,379.168 272.321,380.988 275.249,381.252C276.841,381.396 279.211,381.196 280.537,380.264C281.789,379.386 281.948,378.466 281.907,377.628C281.821,375.897 280.763,374.74 279.071,374.74C277.336,374.74 276.795,376.013 276.787,376.852C276.777,377.994 277.455,378.17 277.447,379.016C277.442,379.449 277.048,380.125 275.964,379.956C274.626,379.745 273.511,378.684 272.787,376.833C272.616,376.402 272.407,375.826 272.147,374.842L270.816,369.669L279.593,369.669C278.447,365.512 276.503,358.128 275.959,356.105L271.525,356.105L274.567,367.445L270.222,367.445L263.28,340.735C265.526,340.481 267.873,340.351 270.297,340.356C274.964,340.366 279.915,340.871 284.972,341.927C306.086,346.332 322.239,358.819 322.254,370.615C322.255,371.487 322.169,372.356 321.989,373.216C319.971,382.884 306.854,388.797 290.529,388.797L290.526,388.797M251.545,376.438L256.731,376.438C264.686,376.438 265.246,372.378 264.571,369.488C263.739,365.91 261.595,363.359 252.463,363.344C251.562,360.016 250.784,357.137 250.504,356.105L246.043,356.105C246.86,359.123 251.545,376.438 251.545,376.438M291.564,360.897C291.564,365.807 295.982,369.993 300.706,369.993C303.054,369.993 305.083,368.901 305.083,367.043C305.083,365.116 303.549,363.133 301.229,362.381C299.786,361.898 298.326,361.613 295.878,361.613C295.819,361.097 295.842,360.898 295.842,360.62C295.842,359.31 296.956,358.193 298.506,358.193C300.585,358.193 302.546,360.1 302.776,360.331L303.549,358.265C302.927,357.621 302.234,357.061 301.446,356.652C300.205,356.005 298.782,355.657 297.225,355.657C293.85,355.657 291.564,357.768 291.564,360.897M316.298,369.903C318.761,369.903 319.131,368.438 319.131,367.302C319.131,365.969 318.189,365.053 317.111,365.053C316.293,365.053 315.933,365.382 315.788,365.526C315.412,365.902 315.349,366.287 315.306,366.607C315.253,366.984 315.129,367.348 314.698,367.418C314.074,367.517 313.564,367.266 313.034,366.796C312.318,366.159 311.708,365.153 311.262,364.185C310.955,363.517 310.727,362.885 310.599,362.434L308.877,356.105L304.411,356.105L308.073,369.669L312.403,369.669L311.626,366.95C312.644,368.183 314.548,369.903 316.298,369.903M281.609,369.669L292.708,369.669C291.43,365.451 285.419,362.025 283.76,358.833L290.754,358.833L290.022,356.105L278.663,356.105C278.663,360.391 285.835,365.341 287.199,367.445L281.008,367.445L281.609,369.669ZM255.457,374.415C254.818,372.053 253.915,368.713 253.047,365.507C256.586,365.516 258.809,366.129 259.9,369.631C260.792,372.498 260.443,374.415 256.236,374.415L255.457,374.415ZM298.487,367.094C297.378,366.244 296.526,364.905 296.194,363.408C298.212,363.478 299.353,363.78 300.4,364.601C301.342,365.34 301.765,366.172 301.765,366.873C301.765,367.257 301.528,367.861 300.444,367.861C299.95,367.861 299.146,367.602 298.487,367.094" style="fill:url(#_Radial1);fill-rule:nonzero;"/>
    </g>
    <defs>
        <radialGradient id="_Radial1" cx="0" cy="0" r="1" gradientUnits="userSpaceOnUse" gradientTransform="matrix(79.9394,0,0,-79.9394,246.926,391.781)"><stop offset="0" style="stop-color:rgb(0,185,242);stop-opacity:1"/><stop offset="0.25" style="stop-color:rgb(0,185,242);stop-opacity:1"/><stop offset="0.53" style="stop-color:rgb(0,165,232);stop-opacity:1"/><stop offset="1" style="stop-color:rgb(0,108,183);stop-opacity:1"/></radialGradient>
    </defs>
</svg>
